svg/ev_plug_domestic_g.svg

<svg xmlns="http://www.w3.org/2000/svg" width="24" height="24" viewBox="0 0 24 24"><path d="M21.36 10.19l-6.15-5.66A2 2 0 0 0 13.85 4h-3.7a2 2 0 0 0-1.36.53l-6.15 5.66A2 2 0 0 0 2 11.66V18a2 2 0 0 0 2 2h16a2 2 0 0 0 2-2v-6.34a2 2 0 0 0-.64-1.47zM20 18H4v-6.34L10.15 6h3.7L20 11.66zm-2-2h-4v-2h4zM6 14h4v2H6zm5-6h2v4h-2z" fill-rule="evenodd"/><path fill="none" d="M0 0h24v24H0z"/></svg>

<svg xmlns="http://www.w3.org/2000/svg" width="24" height="24" viewBox="0 0 24 24"><path d="M21.36,10.19,15.21,4.53A2,2,0,0,0,13.85,4h-3.7a2,2,0,0,0-1.36.53L2.64,10.19A2,2,0,0,0,2,11.66V18a2,2,0,0,0,2,2H20a2,2,0,0,0,2-2V11.66A2,2,0,0,0,21.36,10.19ZM20,18H4V11.66L10.15,6h3.7L20,11.66Zm-2-2H14V14h4ZM6,14h4v2H6Zm5-6h2v4H11Z" fill-rule="evenodd"/><rect width="24" height="24" fill="none"/></svg>
